X:15
T:Jump upon Nothing. ThoH.015
Q:1/2=90
M:3/2
L:1/8
B:Thompson's Compleat Collection of 120 Favourite Hornpipes.
Z:Village Music Project, Simon Wilson 2016
O:England.
K:A
a2A2-A2(ce) (dcBA)|(BAGF)E2D2C4|D2f2(ecBA)f2e2|g2a2(ecBA)B2E2|
a2A2-A2(ce) (dcBA)|(BAGF)E2D2C4|D(B/c/) dBE2(ecBA)|(GB)(Ed) cBAGA4||
e2B2-B2(cA) (BG)E2|g2c2(agfe)^d4|b2e2-egfe (^dfBA)|(GB)e2(caf^d)e2E2|
a2e2-ecBAf2D2|f2d2-dc(dB)e2C2|e2c2-cBcAB3c|(dA)(fe) (dcBA){A}G2E2|
a2A2-A2(ce) (dcBA)|(BAGF)E2D2C4|D(B/c/) dBE2f2(ecBA)|(GB)d2(cA)(BG)A4|]

